components/Icon/icons/check-mark-circle-m.svg

<svg width="16" height="16" viewBox="0 0 16 16" fill="none" xmlns="http://www.w3.org/2000/svg">
  <path d="M24 12C24 18.6274 18.6274 24 12 24C5.37258 24 0 18.6274 0 12C0 5.37258 5.37258 0 12 0C18.6274 0 24 5.37258 24 12Z" fill="#FFE45C"/>
  <path fill-rule="evenodd" clip-rule="evenodd" d="M17.8892 7.86281C18.3048 8.22649 18.3469 8.85825 17.9833 9.27389L11.5217 16.6585C11.3345 16.8725 11.065 16.9966 10.7807 16.9999C10.4964 17.0032 10.2241 16.8853 10.032 16.6757L6.64737 12.9834C6.27418 12.5763 6.30168 11.9437 6.7088 11.5705C7.11592 11.1973 7.74849 11.2248 8.12168 11.632L10.7518 14.5012L16.4781 7.95688C16.8418 7.54124 17.4735 7.49913 17.8892 7.86281Z" fill="black"/>
</svg>

<svg width="16" height="16" viewBox="0 0 16 16" fill="#ffe45c" xmlns="http://www.w3.org/2000/svg"><path d="M24 12c0 6.627-5.373 12-12 12S0 18.627 0 12 5.373 0 12 0s12 5.373 12 12z"/><path d="M17.89 7.863a1 1 0 01.093 1.41l-6.461 7.386a1 1 0 01-1.49.017l-3.385-3.693a1 1 0 111.475-1.351l2.63 2.87 5.726-6.545a1 1 0 011.411-.094z" fill="#000"/></svg>
